X: 97
T: Le Diable an lair
%R: jig
B: Stewart "A Select Collection of Airs, Jigs, Marches and Reels", ca.1784, p.47 #97
F: http://imslp.org/wiki/A_Select_Collection_of_Airs,_Jigs,_Marches_and_Reels_%28Various%29
Z: 2017 John Chambers <jc:trillian.mit.edu>
M: 6/8
L: 1/8
K: G
G2G |\
d2d dcd | BAG g2g | f2g aga | d3 G2G |\
d2d dcd | BAG g2g | f2f aga | d3 :|
|: A2 B |\
c2B ABG | F2D GFG | AGA BcB | A3 A2B |\
c2B ABG | F2D gfe | dcB AGF | G3 :|

%%sep 1 1 500
%%sep 1 1 500

